src/pos-icons/leek.svg

<svg height="24" viewBox="0 0 24 24" width="24" xmlns="http://www.w3.org/2000/svg"><path d="m10 2v3.55l2 2 2-2v-3.55zm-3.66 2-2.47 2.5 11.13 11.12v-4.95zm11.32 0-4.6 4.61 2.48 2.48 4.59-4.59zm-8.66 9.74v6.26a2 2 0 0 0 2 2h2a2 2 0 0 0 2-2v-.26l-2-2v2.26h-2v-4.26z"/></svg>

<?xml version="1.0" encoding="UTF-8"?><!DOCTYPE svg PUBLIC "-//W3C//DTD SVG 1.1//EN" "http://www.w3.org/Graphics/SVG/1.1/DTD/svg11.dtd"><svg xmlns="http://www.w3.org/2000/svg" xmlns:xlink="http://www.w3.org/1999/xlink" version="1.1" id="mdi-leek" width="24" height="24" viewBox="0 0 24 24"><path d="M10 2V5.55L12 7.55L14 5.55V2H10M6.34 4L3.87 6.5L15 17.62V12.67L6.34 4M17.66 4L13.06 8.61L15.54 11.09L20.13 6.5L17.66 4M9 13.74V20A2 2 0 0 0 11 22H13A2 2 0 0 0 15 20V19.74L13 17.74V20H11V15.74L9 13.74Z" /></svg>
